X:1
T:Cercle Circassien : Contredanse
E:12
Z:Roger Ngaret (94-95)
R:marche
C:Trad.
A:
M:4/4
L:1/16
K:C
Q:1/4=120
"G"g2d2 (3d2c2B2 g2d2 (3d2c2B2 | g2d2 (3d2c2B2\
(3A2"Am"B2c2 B2A2 | "G"g2d2 (3d2c2B2 g2d2 (3d2c2B2 |\
d2d2 (3e2d2c2 "Am"B2A2 G4 ||\
(3G2"G"B2d2 (3G2B2d2 (3A2"Am"c2e2 (3A2c2e2 |\
(3G2"G"B2d2 (3G2B2d2 (3A2"Am"B2c2 (3c2B2A2 |\
(3G2"G"B2d2 (3G2B2d2 (3A2"Am"c2e2 (3A2c2e2 |\
"G"d2d2 (3e2d2c2 "Am"B2A2 G4 |]
